X:1
T:Title
%%score { 1 | ( 2 3 ) }
L:1/8
M:4/4
K:Eb
V:1 treble nm="Grand Piano"
V:2 bass 
V:3 bass 
V:1
 z4 z2[Q:1/4=88] EF | G2 G[FA] [GB] [GB]2 [GB] | [Ac][ce][Bd][Ac] [Ac] [GB]2 G | E2 DE B2 AG | %4
 [EG]2 [DF][_D=E] [=DF]2 [DB][FA] | [EG]2 [EG][FA] [GB] [GB]2 [GB] | %6
 [Ac]e[EBd][EAc] [EAc] [EGB]2 [B,EG] | [B,FB]2 [B,F][B,FB] [Fd] [Ff]2 [Ge] |[M:7/8] d2 d c [DB]3 | %9
[M:1/8] B |[M:4/4] [Ge] [Gd]2 [Gc] [Ge] [Gd]2 [Gc] | [Ae] [Ad]2 [Ac] [Ad]3 [Ac] | %12
 [Ae] [Ad]2 [Ac] [Ae] [Ad]2 [DFA] | [Ac]2 [GB][F=A] [GB]2 [EG][F_A] | %14
[M:7/8] [GB]2 [_G=A] [=GB][Ge] [Ge]2 |[M:1/8] [GB] |[M:4/4] c2 =Bc eedc | %17
 Bcde [B,EG]2 [A,DF][A,DF] |[M:3/4] [G,E]6 |] %19
V:2
 z4 z2 [E,G,][E,A,E] | [E,B,E]2 [E,B,E][E,B,] [E,E] [E,E]2 [E,E] | %2
 [A,E]2 [A,E][A,E] [E,E] [E,E]2 [E,B,E] | [E,G,B,]2 [F,A,B,][G,B,] [F,B,D]2 [F,B,D][E,B,E] | %4
 [B,,B,]2 [B,,B,][B,,B,] [B,,B,]2 [B,,B,][B,,B,] | [E,B,]2 [E,B,][E,B,] [E,E] [E,E]2 [E,E] | %6
 [A,E]2[K:bass] z2 z4 | D,2 D,D, [B,,B,] [D,B,]2 [E,B,] | %8
[M:7/8] [F,B,F]2 [F,G,F] [F,=A,E] [B,,B,]3 |[M:1/8] [B,A] | %10
[M:4/4] [E,B,] [E,B,]2 [E,E] [E,B,] [E,B,]2 [E,E] | [F,B,] [F,B,]2 [F,B,] [B,,B,]3 [B,,B,] | %12
 [F,B,] [F,B,]2 [F,B,] [B,,B,] [B,,B,]2 B,, | [E,E]2 [E,E][E,E] [E,E]2 [E,B,][E,B,] | %14
[M:7/8] [E,E]2 [E,E] [E,E][E,B,] [E,B,]2 |[M:1/8] [E,E] | %16
[M:4/4][K:treble] [A,EA]2 [A,DA][A,EA] [=A,C_G][A,CG][A,CG][A,EG] | %17
 [B,EG][B,EG][B,G][B,G][K:bass] B,,2 B,,B,, |[M:3/4] E,6 |] %19
V:3
 x8 | x8 | x8 | x8 | x8 | x8 | z c[K:bass]A,A, E, E,2 E, | x8 |[M:7/8] x7 |[M:1/8] x |[M:4/4] x8 | %11
 x8 | x8 | x8 |[M:7/8] x7 |[M:1/8] x |[M:4/4][K:treble] x8 | x4[K:bass] x4 |[M:3/4] x6 |] %19

